X: 2
T: The Headlands
R: strathspey
M: 4/4
L: 1/8
K: Amaj
d>cB>A B<cE>A | F<Ad>f e2 (3efg | a>ef<a f>ed<c | c>BA<c B2 c>B |d>cB>A B<cE>A | F>Ad>f a2 g>f | e<ae>c B>fe>d | c2 A2 A2 :|a>ef<a e>dc<a | d>ef<a e2 (3efg | a>ef<a f>ed<c |1 c>ba<c b2 (3efg | a>ef<a e>dc<a | d>ef<a a2 g>f | e<aA>c B>fe<d | c2 A2 A2 :|d>cB>A B<cE>A | F>Ad>f ~a2 g>f | e<ae>c B>fe>d | c2 A2 A2 ||


